!!!SOCIAL_FUNCTION:	songs connected with legends
!!!PDT:	1929
!!!OTL: No_42_Song_of_the_Women_by_the_Sea.krn
!!!REG: Southwest
!!!LANG: Non-Tone
!!!LING_GROUP: Uto-Aztecan
**kern
*staff1
=1-
=
*clefF4
*k[f#c#g#]
*M2/4
8A\L
8A\J
8A\L
8G#\J
=2
8A\L
8G#\J
8F#/L
8C#/J
=3
4G#\
8G#\L
8F#\J
=4
4G#\
4G#\
=5
2G#\
=6
8A\L
8A\J
8A\L
8A\J
=7
8A\L
8G#\J
8F#/L
8C#/J
=8
4G#\
8G#\L
8F#\J
=9
4G#\
4G#\
=10
2G#\
=11
8A\L
8A\J
8A\L
8A\J
=12
8A\L
8G#\J
8A\L
8G#\J
=13
8F#/L
8C#/J
4C#/
=14
4G#\
8G#\L
8F#\J
=15||
*M3/4
8.G#\L
16G#\Jk
4G#\
8.G#\L
16F#\Jk
=16||
*M2/4
4G#\
8.G#\L
16F#\Jk
=17||
*M3/8
8F#\L
8G#\
8F#\J
=18||
*M2/4
4.F#\
8F#\
=19
2F#\
==:|!
*-
